korla/actions/symbolic/document-save-as-symbolic.svg

<svg style="clip-rule:evenodd;fill-rule:evenodd;stroke-linejoin:round;stroke-miterlimit:2" version="1.1" viewBox="0 0 16 16" xmlns="http://www.w3.org/2000/svg">
 <g transform="translate(1.5 1)">
  <path d="m11 10h3v1h-1v3h1v1h-3v-1h1v-3h-1v-1z" style="fill:rgb(223,223,223)"/>
 </g>
 <rect x="2" y="14" width="12" height="2" style="fill-opacity:.5;fill:rgb(223,223,223)"/>
 <g transform="matrix(7.75799e-17 1.26698 -1.20811 7.39757e-17 18.8978 .795927)">
  <path d="m8.199 8.503-2.892-2.973 1.005-0.399 3.775 3.889-3.775 3.89-1.005-0.399 2.892-2.973h-8.373v-1.035h8.373z" style="fill-rule:nonzero;fill:rgb(223,223,223)"/>
 </g>
</svg>

<svg xmlns="http://www.w3.org/2000/svg" width="16" height="16" version="1.1">
 <path style="fill:#dfdfdf" d="M 6 1 L 6 7 L 3.5 7 L 8 13 L 8 9.1426 C 8 8.5094 8.5094 8 9.1426 8 L 11.75 8 L 12.5 7 L 10 7 L 10 1 L 6 1 z M 1 14 L 1 16 L 9.1426 16 C 8.5094 16 8 15.491 8 14.857 L 8 14 L 1 14 z"/>
 <path style="fill:#dfdfdf" d="M 10,9 C 9.446,9 9,9.446 9,10 V 15 C 9,15.554 9.446,16 10,16 H 15 C 15.554,16 16,15.554 16,15 V 10 C 16,9.446 15.554,9 15,9 Z M 11,10 H 14 V 11 H 13 V 14 H 14 V 15 H 11 V 14 H 12 V 11 H 11 Z"/>
</svg>
